X:755
T:Galway Reel
M:4/4
L:1/8
K:G
g2  fg edBA|G2 BG AGED|G2 Bd eaag|1 fdef gaba:|2 fdef g2 ef||
gbef gbeg|(3fff df af d2|gbef gbeg|fedf e2 ef|
gb (3bbb b2ag| fa (3aaa a2 gf|gbag fagf|e2 ef gfef|
